packages/icons/svg/Fill/arrow-circle-right.svg

<svg fill="none" height="24" viewBox="0 0 24 24" width="24" xmlns="http://www.w3.org/2000/svg"><path clip-rule="evenodd" d="m13.8613 8.30951 2.862 2.99999c.043.045.064.101.097.151.036.054.079.102.104.162.049.121.076.249.076.377 0 .131-.027.261-.077.383-.051.122-.124.233-.217.325l-2.999 2.999c-.391.391-1.024.391-1.414 0-.391-.39-.391-1.023 0-1.414l1.293-1.293h-5.58596c-.553 0-1-.447-1-1 0-.552.447-1 1-1h5.66296l-1.249-1.30899c-.381-.4-.367-1.032.033-1.414s1.033-.366 1.414.033zm-11.86098 3.68999c0 5.515 4.486 10 9.99998 10 5.514 0 10-4.485 10-10 0-5.51399-4.486-9.99999-10-9.99999-5.51398 0-9.99998 4.486-9.99998 9.99999z" fill="#6b7280" fill-rule="evenodd"/></svg>

<svg width="24" height="24" viewBox="0 0 24 24" fill="none" xmlns="http://www.w3.org/2000/svg">
<g id="Icon/Fill/arrow-circle-right">
<path id="Mask" fill-rule="evenodd" clip-rule="evenodd" d="M13.8612 8.30957L16.7232 11.3096C16.7662 11.3546 16.7872 11.4106 16.8202 11.4606C16.8562 11.5146 16.8992 11.5626 16.9242 11.6226C16.9732 11.7436 17.0002 11.8716 17.0002 11.9996C17.0002 12.1306 16.9732 12.2606 16.9232 12.3826C16.8722 12.5046 16.7992 12.6156 16.7062 12.7076L13.7072 15.7066C13.3162 16.0976 12.6832 16.0976 12.2932 15.7066C11.9022 15.3166 11.9022 14.6836 12.2932 14.2926L13.5862 12.9996H8.00024C7.44724 12.9996 7.00024 12.5526 7.00024 11.9996C7.00024 11.4476 7.44724 10.9996 8.00024 10.9996H13.6632L12.4142 9.69057C12.0332 9.29057 12.0472 8.65857 12.4472 8.27657C12.8472 7.89457 13.4802 7.91057 13.8612 8.30957ZM2.00024 11.9996C2.00024 17.5146 6.48624 21.9996 12.0002 21.9996C17.5142 21.9996 22.0002 17.5146 22.0002 11.9996C22.0002 6.48557 17.5142 1.99957 12.0002 1.99957C6.48624 1.99957 2.00024 6.48557 2.00024 11.9996Z" fill="#000000"/>
</g>
</svg>
